X: 6055
T: Cape North, The
R: jig
M: 6/8
K: Adorian
|:a|e2 A ABA|edc Bcd|e2 A ABc|BAG Bcd|
e2 A ABA|edc B2 d|1 efg dcB|A3 A2:|2 e2 g dBG|A3- A||
|:BA|G2 f g2 a|gfe g3|B2 c d2 e|dBc d3|
efg af/g/a|bgb afd|g2 e dBG|1 A3 A:|2 A3 A2||

